style-guide/assets/xd-icons-bell.svg

<?xml version="1.0" encoding="UTF-8"?>
<svg width="24px" height="24px" viewBox="0 0 24 24" version="1.1" xmlns="http://www.w3.org/2000/svg" xmlns:xlink="http://www.w3.org/1999/xlink">
    <!-- Generator: Sketch 51.3 (57544) - http://www.bohemiancoding.com/sketch -->
    <title>bell</title>
    <desc>Created with Sketch.</desc>
    <defs>
        <path d="M15.000239,19 C14.447239,19 14.000239,19.447 14.000239,20 C14.000239,21.104 13.103239,22 12.000239,22 C10.897239,22 10.000239,21.104 10.000239,20 C10.000239,19.447 9.55323903,19 9.00023903,19 C8.44723903,19 8.00023903,19.447 8.00023903,20 C8.00023903,22.205 9.79423903,24 12.000239,24 C14.206239,24 16.000239,22.205 16.000239,20 C16.000239,19.447 15.553239,19 15.000239,19 M6.32543903,14 L9.03343903,4.523 C9.45843903,3.038 10.834439,2 12.379439,2 C14.009439,2 15.439439,3.156 15.781439,4.75 L17.763439,14 L6.32543903,14 Z M17.736439,4.332 C17.199439,1.822 14.945439,0 12.379439,0 C9.94543903,0 7.77843903,1.635 7.10943903,3.975 L4.03843903,14.725 C3.95243903,15.027 4.01243903,15.352 4.20143903,15.602 C4.39043903,15.853 4.68643903,16 5.00043903,16 L19.000439,16 C19.302439,16 19.588439,15.863 19.777439,15.629 C19.968439,15.395 20.041439,15.086 19.977439,14.791 L17.736439,4.332 Z" id="path-1"></path>
    </defs>
    <g id="bell" stroke="none" stroke-width="1" fill="none" fill-rule="evenodd">
        <mask id="mask-2" fill="white">
            <use xlink:href="#path-1"></use>
        </mask>
        <use id="icons/24px/Bell" fill="#000000" xlink:href="#path-1"></use>
    </g>
</svg>

<svg viewBox="0 0 24 24" xmlns="http://www.w3.org/2000/svg">
    <path d="M15 19a1 1 0 0 0-1 1c0 1.104-.897 2-2 2s-2-.896-2-2a1 1 0 1 0-2 0c0 2.205 1.794 4 4 4s4-1.795 4-4a1 1 0 0 0-1-1m-8.675-5l2.708-9.477A3.496 3.496 0 0 1 12.38 2c1.63 0 3.06 1.156 3.402 2.75L17.763 14H6.325zm11.411-9.668A5.507 5.507 0 0 0 12.38 0a5.505 5.505 0 0 0-5.27 3.975l-3.07 10.75A1 1 0 0 0 5 16h14a1 1 0 0 0 .977-1.209l-2.24-10.459z"/>
</svg>
